**kern	**kern
*staff2	*staff1
*clefF4	*clefG2
*k[b-e-a-]	*k[b-e-a-]
*M3/4	*M3/4
*c:	*c:
=	=
12CCL 12EE- 12GG 12C	12ee-L 12gg 12ccc 12eee-
12CC 12EE- 12GG 12C	12ee- 12gg 12ccc 12eee-
12CCJ 12EE- 12GG 12C	12ee-J 12gg 12ccc 12eee-
12CCL 12EE- 12GG 12C	12ee-L 12gg 12ccc 12eee-
12G'	12c'
12E-'J	12e-'J
12C'L	12g'L
12E-'	12e-'
12C'J	12g'J
=50	=50
12BBL	12dL
12B	12g
12GnJ	12dJ
12DL	12bL
12G	12g
12DJ	12bJ
12BL	12gL
12G	12dd
12BJ	12gJ
=51	=51
12B-L	12eL
12G	12g
12B-J	12eJ
12GL	12dd-L
12E	12g
12GJ	12dd-J
12EL	12gL
12BB-	12ee
12EJ	12gJ
=52	=52
12AL	12fL
12F	12a
12AJ	12fJ
12FL	12ccL
12C	12a
12FJ	12ccJ
12CL	12aL
12AA	12ff
12CJ	12aJ
=53	=53
12A-L	12f#L
12E-	12cc
12A-J	12f#J
12CL	12ee-L
12E-	12f#
12CJ	12ee-J
12E-L	12ccL
12C	12ff#
12AA-J	12ccJ
=54	=54
12GGL	12ggL
12G	12b
12FJ	12aa-J
12A-L	12ddL
12D	12bb
12FJ	12ffJ
12BBL	12dddL
12D	12aa-
12AA-J	12fffJ
=55	=55
12GGL	12bbL
12F	12aaa-
12GJ	12gggJ
12A-L	12fffL
12B	12ddd
12cJ	12eee-J
12FL	12aa-L
12A-	12ff
12GJ	12ggJ
=56	=56
12CL	8cc
12E-	.
.	8r
12BBJ	.
12CL	4r
12EE-	.
12GGJ	.
8CC	4r
8r	.
=57||	=57||
*-	*-
